X:77
T: Taishan jing
N: C1575
O: China, Shandong, Xintai
S: III, 386]
R: Xiaodiao, Bianguan diao]
M: 4/4
L: 1/32
K: C
c8d4e4d16 | e4e4d4e4d4g2e2d8- | d8
e8d4e4d4c4 | c4A4z4d4c16
c4c2A2c4d4A6G2E4G4 | z4A4z4B2A2G6A2G8- | G16
G6A2G4A4 | c8c4d4z4g4e4d4 | g4e2d2e4d4
z4e4d4e4 | d2e2d2c2A4c4z4d4z4e2d2 | B6d2c24
e6d2e4d4B6d2c4c4
z4c8d4e6d2c4c4 | d6B2A2G2A4z4G8G4 | G6A2c2A2c4
z4G4E4D4 | E3GE2D2C4D2E2C16
d4d2A2c4A4c4c2A2c4d4 | A6G2E4G4z4A4z4B2A2 | G6A2G8
G6A2G4A4 | c8c4d4z4g4e4d4 | e4e2d2e4d4
z4e4d4e4 | d2e2d2c2A4c4z4d4z4e2d2 | B6d2c12
e4e4e2d2 | c4d4c2d2c2A2G6A2c2A2c4
z4c4A2c2A2G2A6G2E4D4 | z4G8D4E3GE2D2C4D2E2 | C16
G6A2G6A2 | c8c4d4z4g4e4d4 | g4e2d2e4d4
z4e4d4e4 | d2e2d2c2A6c2z4d4z4e2d2 | B6d2c16z8
G6A2G4A4 | G4c4G6G2 | G4A4G8
G4A4G6c2 | c4E2A2G8
G6A2G4A4 | c4E2A2G8
G6A2G4A4 | G4c4G8
G4A4G4A4 | c4E2A2G8
G6A2G4A4 | G4G2c2G8
G6A2G4A4 | c4E2A2G8
G6A2G4A4 | G4c4c8
d4e2d2c8 | c8c6c2 | d6c2c8 | d4e2d2c2d2c4
z4e4d4e2d2 | c4d4c2d2c2A2G6A2c2A2c4
z4c4A4G4A6G2E4D4 | z4G8D4E3GE2D2C4D2E2 | C16
G6A2G4A4 | c8c4d4z4g4e4d4 | g4e2d2e4d4z4
e4d4e4 | d2e2d2c2A4c4z4
d4z4e2d2 | B6d2c16z8

